Papirus/22x22/panel/skype-status-connecting-1.svg

<?xml version="1.0" encoding="UTF-8" standalone="no"?>
<svg xmlns:dc="http://purl.org/dc/elements/1.1/" xmlns:cc="http://creativecommons.org/ns#" xmlns:rdf="http://www.w3.org/1999/02/22-rdf-syntax-ns#" xmlns:svg="http://www.w3.org/2000/svg" xmlns="http://www.w3.org/2000/svg" version="1.0" width="22" height="22" id="svg2817">
    <metadata id="metadata57">
        <rdf:RDF>
            <cc:Work rdf:about="">
                <dc:format>
                    image/svg+xml
                </dc:format>
                <dc:type rdf:resource="http://purl.org/dc/dcmitype/StillImage"/>
                <dc:title/>
            </cc:Work>
        </rdf:RDF>
    </metadata>
    <path id="path4554" d="M 7 3 A 4 4 0 0 0 3 7 A 4 4 0 0 0 4.1152344 9.7695312 A 7 7 0 0 0 4 11 A 7 7 0 0 0 11 18 A 7 7 0 0 0 12.238281 17.886719 A 4 4 0 0 0 15 19 A 4 4 0 0 0 19 15 A 4 4 0 0 0 17.884766 12.230469 A 7 7 0 0 0 18 11 A 7 7 0 0 0 11 4 A 7 7 0 0 0 9.7617188 4.1132812 A 4 4 0 0 0 7 3 z M 11 5.0898438 L 11 6.0898438 A 5 5 0 0 1 15.996094 10.996094 A 1 1 0 0 1 16 11.089844 A 1 1 0 0 1 15 12.089844 A 1 1 0 0 1 14 11.089844 A 3 3 0 0 0 11 8.0898438 L 11 9.0898438 L 8 7.0898438 L 11 5.0898438 z M 7 10.089844 A 1 1 0 0 1 8 11.089844 A 3 3 0 0 0 11 14.089844 L 11 13.089844 L 14 15.089844 L 11 17.089844 L 11 16.089844 A 5 5 0 0 1 6.0039062 11.183594 A 1 1 0 0 1 6 11.089844 A 1 1 0 0 1 7 10.089844 z " style="opacity:1000002;fill:#ffffff;fill-opacity:1;stroke:none;stroke-width:2;stroke-linecap:round;stroke-linejoin:round;stroke-miterlimit:4;stroke-dasharray:none;stroke-opacity:1"/>
    <path style="fill:#2d9cf2" d="M -22.069,-6.0812" id="path53"/>
</svg>

<?xml version="1.0" encoding="UTF-8" standalone="no"?>
<svg id="svg2817" xmlns:rdf="http://www.w3.org/1999/02/22-rdf-syntax-ns#" xmlns="http://www.w3.org/2000/svg" height="22" width="22" version="1.0" xmlns:cc="http://creativecommons.org/ns#" xmlns:dc="http://purl.org/dc/elements/1.1/">
 <metadata id="metadata57">
  <rdf:RDF>
   <cc:Work rdf:about="">
    <dc:format>image/svg+xml</dc:format>
    <dc:type rdf:resource="http://purl.org/dc/dcmitype/StillImage"/>
    <dc:title/>
   </cc:Work>
  </rdf:RDF>
 </metadata>
 <path id="path4554" opacity="1e6" d="m7 3a4 4 0 0 0 -4 4 4 4 0 0 0 1.1152 2.7695 7 7 0 0 0 -0.1152 1.2305 7 7 0 0 0 7 7 7 7 0 0 0 1.238 -0.113 4 4 0 0 0 2.762 1.113 4 4 0 0 0 4 -4 4 4 0 0 0 -1.115 -2.77 7 7 0 0 0 0.115 -1.23 7 7 0 0 0 -7 -7 7 7 0 0 0 -1.2383 0.1133 4 4 0 0 0 -2.7617 -1.1133zm4 2.0898v1a5 5 0 0 1 4.996 4.9062 1 1 0 0 1 0.004 0.094 1 1 0 0 1 -1 1 1 1 0 0 1 -1 -1 3 3 0 0 0 -3 -3.0002v1l-3-2 3-2zm-4 5.0002a1 1 0 0 1 1 1 3 3 0 0 0 3 3v-1l3 2-3 2v-1a5 5 0 0 1 -4.9961 -4.906 1 1 0 0 1 -0.0039 -0.094 1 1 0 0 1 1 -1z" fill="#fff"/>
 <path id="path53" fill="#2d9cf2" d="m-22.069-6.0812"/>
</svg>
